X:162
T:score242
L:1/8
Q:1/4=96
M:3/8
I:linebreak $
K:Gmin
!f! (d/g/b/) | (d'2 c'/b/) | (bag) | (!>!b2 a/g/) | (gfe) | (!>!g2 f/e/) | (ed^c) |$ (edG/A/) | %8
 (BAd/^F/) | G3 |] %10
